X:12098
T:Novey Gallows. JC.237
M:C|
L:1/8
Q:140
S:John Clare,Poet,Helpstone (1793-1864)
R:Hornpipe
O:England4
A:Northamptonshire
N:
Z:P Headford
K:G
GBdg c'gfg|ecBA GFED|ECB,C A,B,CD|ABcA GFED|!
GBdg c'gfg|ecBA| GFED|ECB,C A,CG, (A/B/ )|cAGFG4:|:!
(B,D)D2(DF)G2|ABcA GFED|(B,D)D2(EF)G2|(gf) ged4|!
ecBc dBAG|ABcA GFED|ECB,C A,B,G, A/B/|cAGFG4:|]
